usr/share/icons/biglinux-icons-material/22/actions/kt-add-feeds.svg

<svg xmlns="http://www.w3.org/2000/svg" viewBox="0 0 22 22"><path d="M3 3v2a14 14 0 0 1 12.633 8h2.187A16 16 0 0 0 3 3zm0 4v2a10 10 0 0 1 8 4.03V13h2.38A12 12 0 0 0 3 7zm0 4v2a6 6 0 0 1 6 6h2a8 8 0 0 0-8-8zm13 3v2h-2v1h2v2h1v-2h2v-1h-2v-2h-1zM4.5 16A1.5 1.5 0 0 0 3 17.5 1.5 1.5 0 0 0 4.5 19 1.5 1.5 0 0 0 6 17.5 1.5 1.5 0 0 0 4.5 16z" style="fill:currentColor;fill-opacity:1;stroke:none;color:#dedede"/></svg>

<svg xmlns="http://www.w3.org/2000/svg" viewBox="0 0 22 22">
  <defs id="defs3051">
    <style type="text/css" id="current-color-scheme">
      .ColorScheme-Text {
        color:#dedede;
      }
      </style>
  </defs>
 <path 
     style="fill:currentColor;fill-opacity:1;stroke:none" 
     d="M 3 3 L 3 5 A 13.999998 13.999998 0 0 1 15.632812 13 L 17.820312 13 A 15.999998 15.999998 0 0 0 3 3 z M 3 7 L 3 9 A 10 10 0 0 1 11 13.029297 L 11 13 L 12 13 L 13.380859 13 A 12 12 0 0 0 3 7 z M 3 11 L 3 13 A 6 5.9999871 0 0 1 9 19 L 11 19 A 8 7.9999828 0 0 0 3 11 z M 16 14 L 16 16 L 14 16 L 14 17 L 16 17 L 16 19 L 17 19 L 17 17 L 19 17 L 19 16 L 17 16 L 17 14 L 16 14 z M 4.5 16 A 1.5 1.5 0 0 0 3 17.5 A 1.5 1.5 0 0 0 4.5 19 A 1.5 1.5 0 0 0 6 17.5 A 1.5 1.5 0 0 0 4.5 16 z "
     class="ColorScheme-Text"
     />
</svg>
